Newaita-dark/apps/32/com.github.rkoesters.xkcd-gtk.svg

<svg height="32" viewBox="0 0 32 32" width="32" xmlns="http://www.w3.org/2000/svg" xmlns:xlink="http://www.w3.org/1999/xlink"><linearGradient id="a"><stop offset="0" stop-opacity=".313726"/><stop offset=".222222" stop-opacity=".27451"/><stop offset="1" stop-opacity="0"/></linearGradient><radialGradient id="b" cx="450.908936" cy="189.579361" gradientTransform="matrix(.00000017 -.0781325 -.140638 -.0000001 44.523152 63.595329)" gradientUnits="userSpaceOnUse" r="21.166656" xlink:href="#a"/><radialGradient id="c" cx="450.908936" cy="189.579361" gradientTransform="matrix(-.00000017 .0781325 .140638 .0000001 -12.770119 -7.527482)" gradientUnits="userSpaceOnUse" r="21.166656" xlink:href="#a"/><radialGradient id="d" cx="450.908936" cy="189.579361" gradientTransform="matrix(-.00000017 -.0781325 .140638 -.0000001 -12.770119 63.595329)" gradientUnits="userSpaceOnUse" r="21.166656" xlink:href="#a"/><radialGradient id="e" cx="450.908936" cy="189.579361" gradientTransform="matrix(.00000017 .0781325 -.140638 .0000001 44.52315 -7.527483)" gradientUnits="userSpaceOnUse" r="21.166656" xlink:href="#a"/><linearGradient id="f" gradientTransform="matrix(.0133601 0 0 .062506 12.465386 13.438784)" gradientUnits="userSpaceOnUse" x1="255.323059" x2="255.323044" y1="233.5" y2="254.666656"><stop offset="0" stop-opacity=".27451"/><stop offset="1" stop-opacity="0"/></linearGradient><linearGradient id="g" gradientUnits="userSpaceOnUse" x1="18.52261200006" x2="18.52261200006" y1="28.033934" y2="2.89610399997"><stop offset="0" stop-color="#bdbdbd"/><stop offset="1" stop-color="#e0e0e0"/></linearGradient><linearGradient id="h" gradientTransform="matrix(.0143224 -.00826902 .00826902 .0143224 -5.88873 9.437296)" gradientUnits="userSpaceOnUse" x1="960" x2="960" y1="1695.118164" y2="175.118134"><stop offset="0" stop-color="#424242"/><stop offset="1" stop-color="#616161"/></linearGradient><path d="m18.191406 28.035156h2.648438v-1.324218h-2.648438zm0 0" fill="url(#b)"/><path d="m13.5625 28.035156h-2.648438v1.320313h2.648438zm0 0" fill="url(#c)"/><path d="m13.5625 28.035156h-2.648438v-1.324218h2.648438zm0 0" fill="url(#d)"/><path d="m18.191406 28.035156h2.648438v1.320313h-2.648438zm0 0" fill="url(#e)"/><path d="m13.5625 27.703125h4.628906v1.652344h-4.628906zm0 0" fill="url(#f)"/><path d="m15.875 2.894531c6.941406 0 12.570312 5.628907 12.570312 12.570313s-5.628906 12.570312-12.570312 12.570312-12.566406-5.628906-12.566406-12.570312 5.625-12.570313 12.566406-12.570313zm0 0" fill="url(#g)"/><path d="m15.875 28.035156c-6.960938 0-12.566406-5.605468-12.566406-12.570312 0-.039063 0-.082032 0-.121094.066406 6.902344 5.644531 12.445312 12.566406 12.445312s12.503906-5.542968 12.570312-12.445312v.121094c0 6.964844-5.605468 12.570312-12.570312 12.570312zm0 0" fill-opacity=".196078"/><path d="m15.875 2.894531c-6.960938 0-12.566406 5.605469-12.566406 12.570313v.125c.066406-6.90625 5.644531-12.449219 12.566406-12.449219s12.503906 5.542969 12.570312 12.449219c0-.042969 0-.082032 0-.125 0-6.964844-5.605468-12.570313-12.570312-12.570313zm0 0" fill="#fff" fill-opacity=".392157"/><path d="m15.875 2.800781c-7.011719 0-12.660156 5.652344-12.660156 12.664063 0 7.011718 5.648437 12.664062 12.660156 12.664062 7.015625 0 12.664062-5.652344 12.664062-12.664062 0-7.011719-5.648437-12.664063-12.664062-12.664063zm0 .1875c6.914062 0 12.476562 5.5625 12.476562 12.476563 0 6.914062-5.5625 12.476562-12.476562 12.476562-6.910156 0-12.472656-5.5625-12.472656-12.476562 0-6.914063 5.5625-12.476563 12.472656-12.476563zm0 0" fill="#212121"/><path d="m10.503906 14.011719c-.636718.367187-.851562 1.171875-.484375 1.808593l1.320313 2.289063-2.863282 1.65625c-.316406.183594-.425781.585937-.242187.902344.183594.316406.585937.425781.902344.242187l4.011719-2.316406 6.875-3.96875 4.007812-2.3125c.320312-.183594.425781-.585938.242188-.90625-.179688-.316406-.585938-.425781-.902344-.242188l-2.863282 1.65625-1.324218-2.292968c-.367188-.632813-1.171875-.851563-1.808594-.484375zm0 0" fill="url(#h)"/><path d="m18.066406 9.863281c-.234375-.003906-.472656.054688-.691406.179688l-6.871094 3.96875c-.507812.292969-.746094.859375-.640625 1.398437.070313-.359375.292969-.691406.640625-.890625l6.871094-3.96875c.636719-.367187 1.441406-.148437 1.808594.484375l1.324218 2.292969 2.863282-1.65625c.316406-.183594.722656-.074219.902344.242187.015624.027344.027343.050782.039062.078126.078125-.183594.070312-.398438-.039062-.585938-.179688-.316406-.585938-.425781-.902344-.242188l-2.863282 1.65625-1.324218-2.292968c-.238282-.417969-.667969-.652344-1.117188-.664063zm-6.945312 8.375-2.644532 1.527344c-.292968.167969-.40625.523437-.28125.824219.054688-.128906.148438-.242188.28125-.316406l2.863282-1.65625zm0 0" fill="#fff" fill-opacity=".235294"/><path d="m24.214844 12.15625c-.050782.0625-.109375.113281-.183594.15625l-4.007812 2.3125-6.875 3.96875-4.011719 2.316406c-.285157.164063-.640625.09375-.839844-.152344-.171875.207032-.203125.503907-.0625.75.183594.316407.585937.425782.902344.242188l4.011719-2.316406 6.875-3.96875 4.007812-2.316406c.320312-.183594.425781-.585938.242188-.902344-.015626-.03125-.035157-.0625-.058594-.089844zm-14.308594 3.421875c-.113281.34375-.085938.738281.113281 1.082031l.957031 1.660156.363282-.210937-1.320313-2.289063c-.046875-.078124-.082031-.160156-.113281-.242187zm0 0" fill-opacity=".235294"/><path d="m168.046452 9.166093c-10.186527 5.874439-13.623699 18.74821-7.74926 28.934737l21.122983 36.621503-45.808125 26.49747c-5.062017 2.937219-6.81185 9.374104-3.87463 14.436121 2.937219 5.062017 9.374105 6.811849 14.436121 3.87463l64.181371-37.058961 109.989497-63.493937 64.118877-36.996467c5.12451-2.937219 6.811849-9.374105 3.87463-14.498615-2.874726-5.062017-9.374105-6.81185-14.436122-3.87463l-45.808125 26.497469-21.185477-36.683996c-5.874439-10.124034-18.74821-13.623699-28.934737-7.74926zm0 0" fill="none" stroke="#212121" stroke-linecap="round" stroke-linejoin="round" stroke-width="3" transform="matrix(.062506 0 0 .062506 0 13.438783)"/></svg>

<?xml version="1.0" encoding="UTF-8"?>
<svg xmlns="http://www.w3.org/2000/svg" xmlns:xlink="http://www.w3.org/1999/xlink" width="32px" height="32px" viewBox="0 0 32 32" version="1.1">
<defs>
<radialGradient id="radial0" gradientUnits="userSpaceOnUse" cx="450.908936" cy="189.579361" fx="450.908936" fy="189.579361" r="21.166656" gradientTransform="matrix(0.00000017417,-0.0781325,-0.140638,-0.000000101539,44.523152,63.595329)">
<stop offset="0" style="stop-color:rgb(0%,0%,0%);stop-opacity:0.313726;"/>
<stop offset="0.222222" style="stop-color:rgb(0%,0%,0%);stop-opacity:0.27451;"/>
<stop offset="1" style="stop-color:rgb(0%,0%,0%);stop-opacity:0;"/>
</radialGradient>
<radialGradient id="radial1" gradientUnits="userSpaceOnUse" cx="450.908936" cy="189.579361" fx="450.908936" fy="189.579361" r="21.166656" gradientTransform="matrix(-0.00000017417,0.0781325,0.140638,0.000000101539,-12.770119,-7.527482)">
<stop offset="0" style="stop-color:rgb(0%,0%,0%);stop-opacity:0.313726;"/>
<stop offset="0.222222" style="stop-color:rgb(0%,0%,0%);stop-opacity:0.27451;"/>
<stop offset="1" style="stop-color:rgb(0%,0%,0%);stop-opacity:0;"/>
</radialGradient>
<radialGradient id="radial2" gradientUnits="userSpaceOnUse" cx="450.908936" cy="189.579361" fx="450.908936" fy="189.579361" r="21.166656" gradientTransform="matrix(-0.00000017417,-0.0781325,0.140638,-0.000000101539,-12.770119,63.595329)">
<stop offset="0" style="stop-color:rgb(0%,0%,0%);stop-opacity:0.313726;"/>
<stop offset="0.222222" style="stop-color:rgb(0%,0%,0%);stop-opacity:0.27451;"/>
<stop offset="1" style="stop-color:rgb(0%,0%,0%);stop-opacity:0;"/>
</radialGradient>
<radialGradient id="radial3" gradientUnits="userSpaceOnUse" cx="450.908936" cy="189.579361" fx="450.908936" fy="189.579361" r="21.166656" gradientTransform="matrix(0.00000017417,0.0781325,-0.140638,0.000000101539,44.52315,-7.527483)">
<stop offset="0" style="stop-color:rgb(0%,0%,0%);stop-opacity:0.313726;"/>
<stop offset="0.222222" style="stop-color:rgb(0%,0%,0%);stop-opacity:0.27451;"/>
<stop offset="1" style="stop-color:rgb(0%,0%,0%);stop-opacity:0;"/>
</radialGradient>
<linearGradient id="linear0" gradientUnits="userSpaceOnUse" x1="255.323059" y1="233.5" x2="255.323044" y2="254.666656" gradientTransform="matrix(0.0133601,0,0,0.062506,12.465386,13.438784)">
<stop offset="0" style="stop-color:rgb(0%,0%,0%);stop-opacity:0.27451;"/>
<stop offset="1" style="stop-color:rgb(0%,0%,0%);stop-opacity:0;"/>
</linearGradient>
<linearGradient id="linear1" gradientUnits="userSpaceOnUse" x1="296.333344" y1="233.5" x2="296.333344" y2="-168.666672" gradientTransform="matrix(0.062506,0,0,0.062506,0,13.438783)">
<stop offset="0" style="stop-color:rgb(74.117649%,74.117649%,74.117649%);stop-opacity:1;"/>
<stop offset="1" style="stop-color:rgb(87.843138%,87.843138%,87.843138%);stop-opacity:1;"/>
</linearGradient>
<linearGradient id="linear2" gradientUnits="userSpaceOnUse" x1="960" y1="1695.118164" x2="960" y2="175.118134" gradientTransform="matrix(0.0143224,-0.00826902,0.00826902,0.0143224,-5.88873,9.437296)">
<stop offset="0" style="stop-color:rgb(25.882354%,25.882354%,25.882354%);stop-opacity:1;"/>
<stop offset="1" style="stop-color:rgb(38.039216%,38.039216%,38.039216%);stop-opacity:1;"/>
</linearGradient>
</defs>
<g id="surface1">
<path style=" stroke:none;fill-rule:nonzero;fill:url(#radial0);" d="M 18.191406 28.035156 L 20.839844 28.035156 L 20.839844 26.710938 L 18.191406 26.710938 Z M 18.191406 28.035156 "/>
<path style=" stroke:none;fill-rule:nonzero;fill:url(#radial1);" d="M 13.5625 28.035156 L 10.914062 28.035156 L 10.914062 29.355469 L 13.5625 29.355469 Z M 13.5625 28.035156 "/>
<path style=" stroke:none;fill-rule:nonzero;fill:url(#radial2);" d="M 13.5625 28.035156 L 10.914062 28.035156 L 10.914062 26.710938 L 13.5625 26.710938 Z M 13.5625 28.035156 "/>
<path style=" stroke:none;fill-rule:nonzero;fill:url(#radial3);" d="M 18.191406 28.035156 L 20.839844 28.035156 L 20.839844 29.355469 L 18.191406 29.355469 Z M 18.191406 28.035156 "/>
<path style=" stroke:none;fill-rule:nonzero;fill:url(#linear0);" d="M 13.5625 27.703125 L 18.191406 27.703125 L 18.191406 29.355469 L 13.5625 29.355469 Z M 13.5625 27.703125 "/>
<path style=" stroke:none;fill-rule:nonzero;fill:url(#linear1);" d="M 15.875 2.894531 C 22.816406 2.894531 28.445312 8.523438 28.445312 15.464844 C 28.445312 22.40625 22.816406 28.035156 15.875 28.035156 C 8.933594 28.035156 3.308594 22.40625 3.308594 15.464844 C 3.308594 8.523438 8.933594 2.894531 15.875 2.894531 Z M 15.875 2.894531 "/>
<path style=" stroke:none;fill-rule:nonzero;fill:rgb(0%,0%,0%);fill-opacity:0.196078;" d="M 15.875 28.035156 C 8.914062 28.035156 3.308594 22.429688 3.308594 15.464844 C 3.308594 15.425781 3.308594 15.382812 3.308594 15.34375 C 3.375 22.246094 8.953125 27.789062 15.875 27.789062 C 22.796875 27.789062 28.378906 22.246094 28.445312 15.34375 C 28.445312 15.382812 28.445312 15.425781 28.445312 15.464844 C 28.445312 22.429688 22.839844 28.035156 15.875 28.035156 Z M 15.875 28.035156 "/>
<path style=" stroke:none;fill-rule:nonzero;fill:rgb(100%,100%,100%);fill-opacity:0.392157;" d="M 15.875 2.894531 C 8.914062 2.894531 3.308594 8.5 3.308594 15.464844 C 3.308594 15.507812 3.308594 15.546875 3.308594 15.589844 C 3.375 8.683594 8.953125 3.140625 15.875 3.140625 C 22.796875 3.140625 28.378906 8.683594 28.445312 15.589844 C 28.445312 15.546875 28.445312 15.507812 28.445312 15.464844 C 28.445312 8.5 22.839844 2.894531 15.875 2.894531 Z M 15.875 2.894531 "/>
<path style=" stroke:none;fill-rule:nonzero;fill:rgb(12.941177%,12.941177%,12.941177%);fill-opacity:1;" d="M 15.875 2.800781 C 8.863281 2.800781 3.214844 8.453125 3.214844 15.464844 C 3.214844 22.476562 8.863281 28.128906 15.875 28.128906 C 22.890625 28.128906 28.539062 22.476562 28.539062 15.464844 C 28.539062 8.453125 22.890625 2.800781 15.875 2.800781 Z M 15.875 2.988281 C 22.789062 2.988281 28.351562 8.550781 28.351562 15.464844 C 28.351562 22.378906 22.789062 27.941406 15.875 27.941406 C 8.964844 27.941406 3.402344 22.378906 3.402344 15.464844 C 3.402344 8.550781 8.964844 2.988281 15.875 2.988281 Z M 15.875 2.988281 "/>
<path style=" stroke:none;fill-rule:nonzero;fill:url(#linear2);" d="M 10.503906 14.011719 C 9.867188 14.378906 9.652344 15.183594 10.019531 15.820312 L 11.339844 18.109375 L 8.476562 19.765625 C 8.160156 19.949219 8.050781 20.351562 8.234375 20.667969 C 8.417969 20.984375 8.820312 21.09375 9.136719 20.910156 L 13.148438 18.59375 L 20.023438 14.625 L 24.03125 12.3125 C 24.351562 12.128906 24.457031 11.726562 24.273438 11.40625 C 24.09375 11.089844 23.6875 10.980469 23.371094 11.164062 L 20.507812 12.820312 L 19.183594 10.527344 C 18.816406 9.894531 18.011719 9.675781 17.375 10.042969 Z M 10.503906 14.011719 "/>
<path style=" stroke:none;fill-rule:nonzero;fill:rgb(100%,100%,100%);fill-opacity:0.235294;" d="M 18.066406 9.863281 C 17.832031 9.859375 17.59375 9.917969 17.375 10.042969 L 10.503906 14.011719 C 9.996094 14.304688 9.757812 14.871094 9.863281 15.410156 C 9.933594 15.050781 10.15625 14.71875 10.503906 14.519531 L 17.375 10.550781 C 18.011719 10.183594 18.816406 10.402344 19.183594 11.035156 L 20.507812 13.328125 L 23.371094 11.671875 C 23.6875 11.488281 24.09375 11.597656 24.273438 11.914062 C 24.289062 11.941406 24.300781 11.964844 24.3125 11.992188 C 24.390625 11.808594 24.382812 11.59375 24.273438 11.40625 C 24.09375 11.089844 23.6875 10.980469 23.371094 11.164062 L 20.507812 12.820312 L 19.183594 10.527344 C 18.945312 10.109375 18.515625 9.875 18.066406 9.863281 Z M 11.121094 18.238281 L 8.476562 19.765625 C 8.183594 19.933594 8.070312 20.289062 8.195312 20.589844 C 8.25 20.460938 8.34375 20.347656 8.476562 20.273438 L 11.339844 18.617188 Z M 11.121094 18.238281 "/>
<path style=" stroke:none;fill-rule:nonzero;fill:rgb(0%,0%,0%);fill-opacity:0.235294;" d="M 24.214844 12.15625 C 24.164062 12.21875 24.105469 12.269531 24.03125 12.3125 L 20.023438 14.625 L 13.148438 18.59375 L 9.136719 20.910156 C 8.851562 21.074219 8.496094 21.003906 8.296875 20.757812 C 8.125 20.964844 8.09375 21.261719 8.234375 21.507812 C 8.417969 21.824219 8.820312 21.933594 9.136719 21.75 L 13.148438 19.433594 L 20.023438 15.464844 L 24.03125 13.148438 C 24.351562 12.964844 24.457031 12.5625 24.273438 12.246094 C 24.257812 12.214844 24.238281 12.183594 24.214844 12.15625 Z M 9.90625 15.578125 C 9.792969 15.921875 9.820312 16.316406 10.019531 16.660156 L 10.976562 18.320312 L 11.339844 18.109375 L 10.019531 15.820312 C 9.972656 15.742188 9.9375 15.660156 9.90625 15.578125 Z M 9.90625 15.578125 "/>
<path style="fill:none;stroke-width:3;stroke-linecap:round;stroke-linejoin:round;stroke:rgb(12.941177%,12.941177%,12.941177%);stroke-opacity:1;stroke-miterlimit:4;" d="M 168.046452 9.166093 C 157.859925 15.040532 154.422753 27.914303 160.297192 38.10083 L 181.420175 74.722333 L 135.61205 101.219803 C 130.550033 104.157022 128.8002 110.593907 131.73742 115.655924 C 134.674639 120.717941 141.111525 122.467773 146.173541 119.530554 L 210.354912 82.471593 L 320.344409 18.977656 L 384.463286 -18.018811 C 389.587796 -20.95603 391.275135 -27.392916 388.337916 -32.517426 C 385.46319 -37.579443 378.963811 -39.329276 373.901794 -36.392056 L 328.093669 -9.894587 L 306.908192 -46.578583 C 301.033753 -56.702617 288.159982 -60.202282 277.973455 -54.327843 Z M 168.046452 9.166093 " transform="matrix(0.062506,0,0,0.062506,0,13.438783)"/>
</g>
</svg>
